src/assets/icons/folder-open.svg

<svg width="14" height="14" viewBox="0 0 14 14" fill="none" xmlns="http://www.w3.org/2000/svg">
<g id="folder-open">
<g clip-path="url(#clip0_156_4502)">
<path id="Vector" fill-rule="evenodd" clip-rule="evenodd" d="M1.13514 3.59457C1.13514 3.05666 1.55801 2.64862 2.02811 2.64862H3.58449L5.60127 5.09108C5.70909 5.22166 5.86958 5.29727 6.03892 5.29727H10.0497C10.5198 5.29727 10.9427 5.70531 10.9427 6.24322V6.43241H3.12541C2.91367 6.43241 2.71954 6.55027 2.62185 6.73813L1.13514 9.59719V3.59457ZM0 11.9189V3.59457C0 2.46762 0.89388 1.51349 2.02811 1.51349H3.85189C4.02123 1.51349 4.18173 1.5891 4.28955 1.71968L6.30632 4.16214H10.0497C11.184 4.16214 12.0778 5.11626 12.0778 6.24322V6.43241H13.4324C13.6307 6.43241 13.8147 6.53591 13.9176 6.70543C14.0205 6.87494 14.0275 7.08588 13.936 7.26182L11.3781 12.1807C11.2805 12.3686 11.0863 12.4865 10.8746 12.4865H0.567568C0.369258 12.4865 0.185329 12.383 0.0824134 12.2134C0.027602 12.1232 3.64025e-06 12.0211 0 11.9189ZM1.50242 11.3513L3.46999 7.56754H12.4976L10.53 11.3513H1.50242Z" fill="black"/>
</g>
</g>
<defs>
<clipPath id="clip0_156_4502">
<rect width="14" height="14" fill="white"/>
</clipPath>
</defs>
</svg>

<svg xmlns="http://www.w3.org/2000/svg" fill="none" viewBox="0 0 14 14"><g clip-path="url(#a)"><path fill="#000" fill-rule="evenodd" d="M1.135 3.595c0-.538.423-.946.893-.946h1.556L5.601 5.09c.108.13.269.206.438.206h4.01c.47 0 .894.408.894.946v.19H3.125a.57.57 0 0 0-.503.305l-1.487 2.86zM0 11.919V3.595c0-1.127.894-2.082 2.028-2.082h1.824c.17 0 .33.076.438.207l2.016 2.442h3.744c1.134 0 2.028.954 2.028 2.081v.19h1.354a.568.568 0 0 1 .504.829l-2.558 4.919a.57.57 0 0 1-.503.306H.568A.567.567 0 0 1 0 11.919m1.502-.568L3.47 7.568h9.028L10.53 11.35z" clip-rule="evenodd"/></g><defs><clipPath id="a"><path fill="#fff" d="M0 0h14v14H0z"/></clipPath></defs></svg>
